!!!SOCIAL_FUNCTION:	songs of the bear dance
!!!PDT:	1922
!!!OTL: No_7_Bear_Dance_Song_(c).krn
!!!REG: Southwest
!!!LANG: Non-Tone
!!!LING_GROUP: Uto-Aztecan
**kern
*staff1
=1-
=
*clefF4
*k[f#c#g#]
*M2/4
8.c#\L
16A\Jk
12c#\L
12A\
12A\J
=2
8.c#\L
16c#\Jk
4A\
=3
8.c#;\L
16A\Jk
8.E\L
16E\Jk
=4
2E\
=5
8.c#\L
16A\Jk
12c#\L
12A\
12A\J
=6
8.c#\L
16c#\Jk
4A\
=7
8.c#;\L
16A\Jk
8.E\L
16E\Jk
=8
4..E\
16A\
=9
8.A\L
16E\Jk
8.E\L
16A\Jk
=10
8.A\L
16E\Jk
8.E\L
16B\Jk
=11
8B\L
16A\L
16A\JJ
8B\L
16A\L
16A\JJ
=12||
*M3/4
4E\
4..E\
16A\
=13||
*M2/4
8.A\L
16E\Jk
8.E\L
16A\Jk
=14
8.A\L
16E\Jk
4E\
=15
8A\L
8A\J
8E\L
8A\J
=16
4E\
4E\
=17
4c#\
8A\L
16c#\L
16A\JJ
=18
8E\L
8E\J
16E\LK
8.E;\J
=19||
*M3/4
16E\LL
16E\J
8E\J
16E\LL
16E\J
[8E\J
4E\]
=20
16E\LL
16E\J
8E\J
16E\LL
16E\J
[8E\J
4E\]
==:|!
*-
